CSETWebApi/CSETWeb_Api/CSETWeb_ApiCore/Diagram/src/main/webapp/img/lib/mscae/Content_Delivery_Network.svg

<svg xmlns="http://www.w3.org/2000/svg" width="50" height="22.8"><path d="M34.9 6.1H8.3c-1.1 0-2-.9-2-2s.9-2 2-2h26.6c1.1 0 2 .9 2 2s-.9 2-2 2zm-5.4 16.7H4.9c-1.1 0-2-.9-2-2s.9-2 2-2h24.6c1.1 0 2 .9 2 2s-.9 2-2 2zm-2.9-8.1H2c-1.1 0-2-.9-2-2s.9-2 2-2h24.6c1.1 0 2 .9 2 2s-.9 2-2 2z" fill="#7a7a7a"/><path d="M50 18.5c0-2.4-1.9-4.3-4.2-4.3h-.6c.2-.9.4-1.9.4-3C45.6 5 40.5 0 34.4 0c-4.9 0-9.1 3.3-10.6 7.6-.8-.2-1.6-.4-2.5-.4-4.3 0-7.6 3.5-7.6 7.8s3.4 7.8 7.6 7.8H46c2.3-.3 4-2.1 4-4.3" fill="#3999c6"/><path d="M25.3 22.7c-1-1-1.8-2.2-2.1-3.8-.9-4.2 1.6-8.3 5.7-9.2.9-.2 1.7-.2 2.6-.1.3-3.9 2.7-7.3 6.3-9-1.1-.3-2.2-.6-3.4-.6-4.9 0-9.1 3.3-10.6 7.6-.8-.2-1.6-.4-2.5-.4-4.3 0-7.6 3.5-7.6 7.8s3.4 7.8 7.6 7.8l4-.1z" opacity=".2" fill="#fff" enable-background="new"/></svg>

<?xml version="1.0" encoding="UTF-8" standalone="no"?>
<svg
   xmlns:dc="http://purl.org/dc/elements/1.1/"
   xmlns:cc="http://creativecommons.org/ns#"
   xmlns:rdf="http://www.w3.org/1999/02/22-rdf-syntax-ns#"
   xmlns:svg="http://www.w3.org/2000/svg"
   xmlns="http://www.w3.org/2000/svg"
   xmlns:sodipodi="http://sodipodi.sourceforge.net/DTD/sodipodi-0.dtd"
   xmlns:inkscape="http://www.inkscape.org/namespaces/inkscape"
   version="1.1"
   id="Layer_1"
   x="0px"
   y="0px"
   width="50"
   height="22.799999"
   viewBox="0 0 50 22.799999"
   xml:space="preserve"
   inkscape:version="0.91 r13725"
   sodipodi:docname="Azure Content Delivery Network (CDN)_COLOR.svg"><metadata
     id="metadata19"><rdf:RDF><cc:Work
         rdf:about=""><dc:format>image/svg+xml</dc:format><dc:type
           rdf:resource="http://purl.org/dc/dcmitype/StillImage" /><dc:title></dc:title></cc:Work></rdf:RDF></metadata><defs
     id="defs17" /><sodipodi:namedview
     pagecolor="#ffffff"
     bordercolor="#666666"
     borderopacity="1"
     objecttolerance="10"
     gridtolerance="10"
     guidetolerance="10"
     inkscape:pageopacity="0"
     inkscape:pageshadow="2"
     inkscape:window-width="1920"
     inkscape:window-height="1018"
     id="namedview15"
     showgrid="false"
     fit-margin-top="0"
     fit-margin-left="0"
     fit-margin-right="0"
     fit-margin-bottom="0"
     inkscape:zoom="14.656481"
     inkscape:cx="16.409796"
     inkscape:cy="10.729921"
     inkscape:window-x="-8"
     inkscape:window-y="-8"
     inkscape:window-maximized="1"
     inkscape:current-layer="Layer_1" /><style
     type="text/css"
     id="style3">
	.st0{fill:#7A7A7A;}
	.st1{fill:#3999C6;}
	.st2{opacity:0.2;fill:#FFFFFF;enable-background:new    ;}
</style><path
     class="st0"
     d="M 34.9,6.1 8.3,6.1 C 7.2,6.1 6.3,5.2 6.3,4.1 L 6.3,4.1 C 6.3,3 7.2,2.1 8.3,2.1 L 34.9,2.1 C 36,2.1 36.9,3 36.9,4.1 L 36.9,4.1 C 36.9,5.2 36,6.1 34.9,6.1 Z"
     id="path5"
     inkscape:connector-curvature="0"
     style="fill:#7a7a7a" /><path
     class="st0"
     d="M 29.5,22.8 4.9,22.8 C 3.8,22.8 2.9,21.9 2.9,20.8 L 2.9,20.8 C 2.9,19.7 3.8,18.8 4.9,18.8 L 29.5,18.8 C 30.6,18.8 31.5,19.7 31.5,20.8 L 31.5,20.8 C 31.5,21.9 30.6,22.8 29.5,22.8 Z"
     id="path7"
     inkscape:connector-curvature="0"
     style="fill:#7a7a7a" /><path
     class="st0"
     d="M 26.6,14.7 2,14.7 C 0.9,14.7 0,13.8 0,12.7 L 0,12.7 C 0,11.6 0.9,10.7 2,10.7 L 26.6,10.7 C 27.7,10.7 28.6,11.6 28.6,12.7 L 28.6,12.7 C 28.6,13.8 27.7,14.7 26.6,14.7 Z"
     id="path9"
     inkscape:connector-curvature="0"
     style="fill:#7a7a7a" /><path
     class="st1"
     d="M 50,18.5 C 50,16.1 48.1,14.2 45.8,14.2 45.6,14.2 45.5,14.2 45.2,14.2 45.4,13.3 45.6,12.3 45.6,11.2 45.6,5 40.5,0 34.4,0 29.5,0 25.3,3.3 23.8,7.6 23,7.4 22.2,7.2 21.3,7.2 17,7.2 13.7,10.7 13.7,15 13.7,19.3 17.1,22.8 21.3,22.8 L 21.3,22.8 21.3,22.8 46,22.8 46,22.8 C 48.3,22.5 50,20.7 50,18.5"
     id="path11"
     inkscape:connector-curvature="0"
     style="fill:#3999c6" /><path
     class="st2"
     d="M 25.3,22.7 C 24.3,21.7 23.5,20.5 23.2,18.9 22.3,14.7 24.8,10.6 28.9,9.7 29.8,9.5 30.6,9.5 31.5,9.6 31.8,5.7 34.2,2.3 37.8,0.6 36.7,0.3 35.6,0 34.4,0 29.5,0 25.3,3.3 23.8,7.6 23,7.4 22.2,7.2 21.3,7.2 17,7.2 13.7,10.7 13.7,15 13.7,19.3 17.1,22.8 21.3,22.8 L 21.3,22.8 21.3,22.8 25.3,22.7 25.3,22.7 Z"
     id="path13"
     inkscape:connector-curvature="0"
     style="opacity:0.2;fill:#ffffff;enable-background:new" /></svg>
